svg/white/ant.svg

<svg xmlns="http://www.w3.org/2000/svg" width="32" height="32" viewBox="0 0 32 32">
  <path fill="#FFF" fill-rule="evenodd" d="M7.96464992,17.5975269 C7.94012331,17.5506451 7.91573995,17.5035877 7.89150042,17.4563554 C7.31307684,16.3306333 6.85343674,15.1774915 6.49913169,14.0432686 C6.28542909,13.3591508 6.13615592,12.7703413 6.03832139,12.2976567 C7.85119677,10.810424 9.98955725,9.53607498 12.2868222,8.46965055 C13.1479818,8.06988748 13.9839968,7.72204758 14.773208,7.425017 C15.2632652,7.24057719 15.6724926,7.09882864 15.9949366,6.99518628 C16.3266381,7.1025026 16.7257423,7.2409983 17.2144057,7.42500175 C18.0045325,7.72251949 18.8402198,8.0701681 19.7011932,8.4696698 C22.0005814,9.53661272 24.139427,10.8106092 25.9518447,12.2973587 C25.8537472,12.764946 25.7029795,13.35413 25.488948,14.0361545 C25.133452,15.1689646 24.6743155,16.3203357 24.0990307,17.442803 C23.5490069,18.514559 22.9262272,19.4965438 22.2384337,20.3776458 C19.1266183,20.1558093 19.3162404,18.2774426 19.3162404,18.2774426 C19.3162404,18.2029042 19.3162404,18.1283659 19.3298789,18.0538275 C19.3298789,18.0538275 19.4799024,16.5766121 20.7823792,16.5766121 C20.9528605,16.5698359 21.1233417,16.603717 21.266546,16.6850316 C21.948471,17.0509473 21.5052198,17.7353453 21.5052198,17.7353453 C22.357626,17.5998209 23.4146098,16.6511505 23.2441286,14.9909773 C23.0736473,13.3308041 21.0824262,12.4770008 21.0824262,12.4770008 C21.1437995,12.0975326 21.0824262,11.9687845 21.0824262,11.9687845 C16.8544911,9.42770308 13.5607932,9.97657667 13.5607932,9.97657667 L14.3791033,10.7897227 C14.2972723,10.7829465 14.208622,10.7829465 14.126791,10.7829465 C10.6967082,10.9049184 7.95536957,13.764482 7.95536957,17.2813387 C7.95536957,17.3906003 7.95856398,17.495855 7.96464992,17.5975269 Z M16,32 C7.163444,32 0,24.836556 0,16 C0,7.163444 7.163444,0 16,0 C24.836556,0 32,7.163444 32,16 C32,24.836556 24.836556,32 16,32 Z M27,11.9017785 L26.773708,11.7411614 C24.9316561,10.1920378 22.7535832,8.8628235 20.4022277,7.74575941 C18.8332513,7.00038201 17.3989057,6.44691804 16.3177285,6.10013275 L16.2100305,6.06457809 L15.9934031,6 L15.6748081,6.09949799 C14.5916254,6.44691804 13.1572799,7.00038201 11.5883034,7.74575941 C9.23327545,8.86456819 7.05207185,10.1961904 5.20819461,11.7484215 L5.11966831,11.8228556 L5,11.9234744 L5.05169395,12.2107051 C5.04171671,12.171048 5.09662772,12.4506159 5.1468976,12.6754431 C5.2308201,13.0507783 5.33787557,13.4696307 5.47120765,13.9256539 C5.85135235,15.225827 6.36619517,16.5661645 7.03707495,17.8784365 C7.93829051,19.6353133 9.03679933,21.1714783 10.3045022,22.4519456 C11.8512886,24.0096488 13.6582023,25.1649002 15.67105,25.8846757 L15.788555,25.9258918 L15.9998617,26 L16.2128597,25.9176902 L16.3247227,25.8784583 C18.3333073,25.1602126 20.1345283,24.0074839 21.6921333,22.4458887 C22.9538663,21.1783405 24.0544191,19.637584 24.9601066,17.87199 C25.6316398,16.5614457 26.1483344,15.2197403 26.528659,13.9215588 C26.7469148,13.1765749 26.9238848,12.3985211 26.9503745,12.1812153 L27,11.9017785 Z M19.3980714,12.6260776 C19.3912522,12.6328538 19.3844329,12.63963 19.3844329,12.63963 C18.1910641,12.38891 17.7614514,11.7790504 17.7614514,11.7790504 C18.8866277,11.7722742 19.9026959,12.0365467 20.6459942,12.483777 C20.6459942,12.483777 20.2436585,12.3550289 19.8345034,12.3008191 C19.6299259,12.5108819 19.4526254,12.5989727 19.3980714,12.6260776 Z"/>
</svg>

<svg xmlns="http://www.w3.org/2000/svg" width="32" height="32"><path fill="#FFF" fill-rule="evenodd" d="M7.965 17.598a21.528 21.528 0 0 1-1.466-3.554 18.546 18.546 0 0 1-.46-1.746c1.812-1.488 3.95-2.762 6.248-3.828.861-.4 1.697-.748 2.486-1.045.49-.184.9-.326 1.222-.43.332.108.73.246 1.22.43.79.298 1.625.645 2.486 1.045 2.3 1.067 4.438 2.34 6.25 3.827a21.79 21.79 0 0 1-1.853 5.145 18.46 18.46 0 0 1-1.86 2.936c-3.111-.222-2.922-2.1-2.922-2.1 0-.075 0-.15.014-.224 0 0 .15-1.477 1.452-1.477a.91.91 0 0 1 .485.108c.681.366.238 1.05.238 1.05.853-.135 1.91-1.084 1.74-2.744-.171-1.66-2.163-2.514-2.163-2.514.062-.38 0-.508 0-.508-4.228-2.541-7.521-1.992-7.521-1.992l.818.813c-.082-.007-.17-.007-.252-.007-3.43.122-6.172 2.981-6.172 6.498 0 .11.004.215.01.317zM16 32C7.163 32 0 24.837 0 16S7.163 0 16 0s16 7.163 16 16-7.163 16-16 16zm11-20.098l-.226-.16c-1.842-1.55-4.02-2.88-6.372-3.996A34.162 34.162 0 0 0 16.318 6.1l-.108-.035L15.993 6l-.318.1c-1.083.347-2.518.9-4.087 1.646-2.355 1.119-4.536 2.45-6.38 4.002l-.088.075-.12.1.052.288c-.01-.04.045.24.095.464a22.706 22.706 0 0 0 1.89 5.203c.901 1.757 2 3.293 3.268 4.574a14.314 14.314 0 0 0 5.366 3.433l.118.04.21.075.214-.082.112-.04c2.008-.718 3.81-1.87 5.367-3.432 1.262-1.268 2.362-2.808 3.268-4.574a22.672 22.672 0 0 0 1.569-3.95c.218-.745.395-1.523.421-1.74l.05-.28zm-7.602.724l-.014.014c-1.193-.251-1.623-.86-1.623-.86 1.126-.008 2.142.257 2.885.704 0 0-.402-.129-.811-.183-.205.21-.382.298-.437.325z"/></svg>
